X:1
T:Christmas Brings Joy, 87.97.87.87
T:Carl Emanuel Friedrich Weyse, 1841
T:Christmas Brings Joy, 87.97.87.87
T:Public Domain
C:Carl Emanuel Friedrich Weyse, 1841
Z:Public Domain
%%score ( 1 2 ) ( 3 4 )
L:1/8
M:none
K:F
V:1 treble 
V:2 treble 
V:3 bass 
V:4 bass 
V:1
 [CA][CF][CA] [Cc]2 [CA] | (DC)[CG] [CA]2 [DF] | [Fd]2 [Fd](c>B)[CA] [CG]3 C2 [Cc] | %3
 [CA][CF][CA] [Cc]2 [CA] | (DC)[CG] [CA]2 [Cc](G>A)[CG](c>=B)[Ec] | G2 F [Ec]3 | %6
 [EG]>F[EG] [FA]2 [FA] | (FD)[EG] [FA]2 [CF] | [B,B]2 [CA](G>A)[DG] | [CG]3 C2 [Ec] | %10
 cA[FB] [Fc]2 [FA] | (GB)[FA] [EG]2 [Gc] | (AB)[Fd](c>B)[FA] | ([FA]2 [EG]) F3 |] %14
V:2
 x6 | F2 x4 | x3 E2 x7 | x6 | F2 x3 C2 G2 x3 | d3 x3 | x6 | B2 x4 | x3 D2 x | x6 | F2 x4 | E2 x4 | %12
 F2 E2 x2 | x3 F3 |] %14
V:3
 [F,A,][A,C][F,A,] [F,A,]2 F, | (B,,A,,)[C,E,] F,2 [D,A,] | %2
 (B,>A,)[B,,B,] [C,G,]2 F, [C,E,]3 [C,E,]2 [C,E,] | F,[F,A,]F, [F,A,]2 F, | %4
 (B,,A,,)[C,E,] F,2 [A,,F,] [C,E,]2 [C,E,] [E,C]2 [A,C] | C =B,2 [C,G,]3 | %6
 [B,,C]>[A,,C][C,C] [F,C]2 [A,C] | [G,B,]2 [C,C] [F,C]2 [F,A,] | [D,F,]2 [C,F,] [=B,,F,]2 [B,,F,] | %9
 [C,E,]3 [C,E,]2 [C,B,] | A,F,[F,G,] [F,A,]2 [F,C] | [C,C]2 [F,C] [C,C]2 [E,C] | %12
 ([F,C][D,B,])[B,,B,] [C,G,]2 [D,F,] | (C2 B,) [F,A,]3 |] %14
V:4
 x5 F, | F,2 F,2 x2 | B,,2 x3/2 F, x15/2 | F,F, x F, x2 | F,2 F,2 x8 | G,3 x3 | x6 | x6 | x6 | x6 | %10
 F,2 x4 | x6 | x6 | C,3 x3 |] %14

